X:1
T:All in the Silent Night
T:All in the Silent Night
T: Isaac Hickman Meredith
T:Eliza Edmunds Hewitt, 1906
T:Public Domain Courtesy of the Cyber Hymnal™
T:Public Domain Courtesy of the Cyber Hymnal™
C:Isaac Hickman Meredith
Z:Public Domain
Z:Courtesy of the Cyber Hymnal™
%%score ( 1 2 ) ( 3 4 )
L:1/8
Q:1/4=105
M:6/8
K:Bb
V:1 treble 
V:2 treble 
V:3 bass 
V:4 bass 
V:1
 F=E[DF] [Dd]2 [DFd] | c6 ([EF] [EF]2 [EF]) | FE[EF] [Ec]2 [Ec] | B6 | F=E[DF] [DB]2 [DB] | A6 | %6
w: 1.~All in the si- lent|night, Num- * *|* ber- less an- gels|bright|Came on their wings of|light|
w: 2.~Join in the song so|sweet, Now * *|* with the shep- herds|meet,|Haste to the Sav- ior’s|feet,|
w: 3.~Brok- en the shades of|night; Hail * *|* to the Day- spring|bright!|Spread- ing the bless- èd|light,|
 FA[Fc] [Fe]2 [Fe] | d6 ([DF]2 [DF]) | F=E[DF] [Fd]2 [Fd] | c6 | F=E[_EF] [Ec]2 [Ec] | B6 | %12
w: Throng- ing the deep blue|sky; Beau- *|* ti- ful songs they|sang,|Won- der- ful e- choes|rang;|
w: Wor- ship the Child di-|vine; Come *|* with the men of|old,|Nor let the heart with-|hold|
w: Tell of a Sav- ior|born, Till *|* all man- kind shall|see|Mer- cy, so great and|free,|
 [GB][FA][EG] ([GB][FA])[EG] | F3 d3 [DF] | cG[_Ed] (cF)[Ec] | B6 |:"^Refrain" d3 [DF] F3 | %17
w: Glo- ry to Christ * our|king, Glo- ry|* to God on * high.|||
w: Aught of its pur- * est|gold; All to|* the King re- * sign.|Glo-|ry, glo- ry|
w: Till on this earth * shall|be Dawn of|* e- ter- nal * morn.|||
"^Echo" FBd f3 | e3 [EG] G3 | Gce g3 |1 AA[EA] AG[EF] | [Ec]2 [Ec] [Ec]3 | GG[DG] GF[DB] | %23
w: ||||||
w: to God! Glo- ry,|glo- ry to|God, Glo- ry, all|glo- ry to God on high!|Let ev- ery|list- en- ing heart re- ply;|
w: ||||||
 [DFd]2 [DFd] d3 [DF] :|2 AA[EA] (AG)[EF] || [Ec]2 [Ec] [Ec]2"^rall." [Fe] | %26
w: |||
w: Far let the joy-|* ful tid- ings * fly;|All glo- ry to|
w: |||
 [Fd][DF][Fd] (cF)[Ec] | B3- [DB]2 z x |] %28
w: ||
w: God on high! * * *||
w: ||
V:2
 D2 x4 | [EF]2 x8 | E2 x4 | (D2 D D2 D) | D2 x4 | (E2 E E2 E) | F2 x4 | F2 F x6 | D2 x4 | %9
 (=E2 E E2 E) | E2 x4 | (D2 D D2 D) | x6 | D2 D [DF]2 x2 | =E2 _E2 x2 | (D2 E D3) |: %16
 ([DF]2 D2 D) x2 | x6 | ([EG]2 E2 E) x2 | x6 |1 E2 E2 x2 | x6 | D2 D2 x2 | x3 [DF]2 x2 :|2 %24
 E2 E2 x2 || x6 | x3 E2 x | D2 E x4 |] %28
V:3
 [B,,F,B,]2 [B,,F,B,] [B,,F,B,]2 [B,,F,B,] | ([F,A,]2 [F,A,] [F,A,]2 [F,A,]) x4 | %2
 [F,A,]2 [F,A,] [F,A,]2 [F,A,] | ([B,,F,B,]2 [B,,F,B,] [B,,F,B,]2 [B,,F,B,]) | %4
 [B,,F,]2 [B,,F,] [B,,F,]2 [B,,F,] | ([C,F,]2 [C,F,] [C,F,]2 [C,F,]) | %6
 [F,A,]2 [F,A,] [F,A,][G,B,][A,C] | B,2 (B, [B,,F,B,]2 [B,,F,B,]) x3 | %8
 [B,,F,B,]2 [B,,F,B,] [G,=B,]2 [G,B,] | ([C,G,B,]2 [C,G,B,] [C,G,B,]2 [C,G,B,]) | %10
 [F,A,]2 [F,A,] [F,A,]2 [^F,A,] | ([G,B,]2 [G,B,] [G,B,]2 [G,B,]) | [E,B,]2 [E,B,] [E,B,]2 [E,B,] | %13
 ([B,,B,]2 [B,,B,] [B,,B,]2 [B,,B,]) x | [C,B,]2 [C,B,] [F,A,]2 [F,A,] | %15
 ([B,,B,]2 [B,,G,] [B,,F,]3) |: ([B,,F,B,]2 [B,,F,B,]) ([B,,F,B,]2 [B,,F,B,]) x | %17
 [F,B,D]2 [F,B,D] ([F,B,D]2 [F,B,D]) | ([C,G,C]2 [C,G,C]) ([C,G,C]2 [C,G,C]) x | %19
 [G,CE]2 [G,CE] ([G,CE]2 [G,CE]) |1 [F,C]2 [F,C] CB,[F,A,] | [F,A,]2 [F,A,] [F,A,]3 | %22
 [B,,F,B,]2 [B,,F,B,] [B,,F,B,]2 [B,,F,B,] | [B,,F,B,]2 [B,,F,B,] ([B,,F,B,]2 [B,,F,B,]) x :|2 %24
 [F,C]2 [F,C] (CB,)[F,A,] || [F,A,]2 [F,A,] [F,A,]2 [F,C] | [B,,B,]2 [B,,B,] [F,A,]2 [F,A,] | %27
 B,3 (G, [B,,F,]2) z |] %28
V:4
 x6 | x10 | x6 | x6 | x6 | x6 | x6 | (B,2 B,) x6 | x6 | x6 | x6 | x6 | x6 | x7 | x6 | x6 |: x7 | %17
 x6 | x7 | x6 |1 x3 F,2 x | x6 | x6 | x7 :|2 x3 F,2 x || x6 | x6 | B,,2- x5 |] %28

